TO PETALS :siz
	lt 135
	repeat 18[ fd :siz rt 10]
	lt 135
	repeat 18[ fd :siz rt 10]
	lt 135
	repeat 18[fd :siz rt 10]
	lt 135
	repeat 18[fd :siz rt 10]
	lt 135
	repeat 18[ fd :siz rt 10]
	lt 135
	repeat 18[ fd :siz rt 10]
	lt 135
	repeat 18[fd :siz rt 10]
	lt 135
	repeat 18[fd :siz rt 10]
	
	

END
